symbols/web/verified_user/materialsymbolsoutlined/verified_user_wght700grad200fill1_48px.svg

<svg xmlns="http://www.w3.org/2000/svg" height="48" width="48"><path d="m21.8 30.5 11.65-11.7-2.35-2.35-9.15 9.15-5.05-5.05L14.45 23ZM24 45.05q-7.45-1.9-12.275-8.6Q6.9 29.75 6.9 21.85V9.25L24 2.85l17.15 6.4v12.6q0 7.9-4.85 14.6-4.85 6.7-12.3 8.6Z"/></svg>

<svg xmlns="http://www.w3.org/2000/svg" height="48" width="48"><path d="M21.8 30.5 33.45 18.8 31.1 16.45 21.95 25.6 16.9 20.55 14.45 23ZM24 45.05Q16.55 43.15 11.725 36.45Q6.9 29.75 6.9 21.85V9.25L24 2.85L41.15 9.25V21.85Q41.15 29.75 36.3 36.45Q31.45 43.15 24 45.05Z"/></svg>
